X:27
T:Polonäs efter Gustaf Weslien
S:efter Gustaf Weslien
R:Slängpolska
B:Gustaf Wesliens notbok
B:FMK - katalog MMD34 bild 12
O:Östergötland
Z:Nils L
M:3/4
L:1/16
K:D
D2>F2 FEFG A4 | d2>e2 fefg a4 | bagf agfe gfed | dcde cdcB ABAG | S
D2>F2 FEFG A4 | d2>e2 fefg a4 | bagf agfe gfed | cdec d4 D4 !fine! ::
K:Dm
d2e2 f2f2 f2f2 | fafd egec d4 | c2e2 e2f2 g2g2 | gbge fafd e4 S |

